packages/icons/src/svg/pie-charts.svg

<svg xmlns="http://www.w3.org/2000/svg" viewBox="0 0 16 16">
    <path d="M12.0146 1.0443C11.7196.8743 11.4126.7233 11.0966.5933 10.4626.3343 9.3196.1083 8.9986.0623L8.9986 3.2573C9.0976 3.2783 9.1996 3.2923 9.2966 3.3193 10.1206 3.5473 10.8576 3.9893 11.4436 4.5813 11.5006 4.6393 11.5496 4.7043 11.6036 4.7643L11.7016 4.7083 14.3726 3.1643C14.1436 2.8563 13.8996 2.5653 13.6376 2.2993 13.1486 1.8053 12.6046 1.3843 12.0146 1.0443M8.9985 15.9383C9.3655 15.8953 9.7265 15.8413 10.0725 15.7383 11.2585 15.3823 12.1875 14.8533 12.6865 14.4813 13.1255 14.1653 13.5235 13.8103 13.8795 13.4253 14.5915 12.6543 15.1345 11.7593 15.4925 10.8003 15.8515 9.8403 16.0245 8.8153 15.9975 7.7833 15.9635 6.4943 15.6165 5.1943 14.9265 3.9993L12.2025 5.5733C12.6145 6.2883 12.8545 7.1143 12.8545 8.0003 12.8545 10.0093 11.6315 11.7353 9.8905 12.4723 9.6055 12.5923 9.3075 12.6843 8.9985 12.7493L8.9985 15.9383zM7.9985 12.8538C7.6635 12.8538 7.0065 12.7498 6.9985 12.7488 6.3755 12.6178 5.7955 12.3698 5.2855 12.0248 3.9945 11.1518 3.1445 9.6748 3.1445 7.9998 3.1445 6.3238 3.9945 4.8458 5.2855 3.9738 5.7955 3.6278 6.3755 3.3798 6.9985 3.2498 7.0055 3.2478 7.0125 3.2438 7.0205 3.2428 7.3365 3.1778 7.6635 3.1438 7.9985 3.1438L7.9985-.0002C6.8945-.0002 5.8415.2238 4.8845.6288 4.4065.8308 3.9515 1.0788 3.5265 1.3658 2.8885 1.7968 2.3155 2.3178 1.8265 2.9108.8485 4.0958.2055 5.5678.0415 7.1818.0145 7.4508-.0005 7.7238-.0005 7.9998-.0005 8.2758.0145 8.5488.0415 8.8178.2055 10.4308.8485 11.9028 1.8265 13.0878 2.3155 13.6808 2.8885 14.2008 3.5265 14.6328 3.9515 14.9198 4.4065 15.1678 4.8845 15.3698 5.8415 15.7748 6.8945 15.9988 7.9985 15.9988L7.9985 12.8538z"/>
</svg>

<svg xmlns="http://www.w3.org/2000/svg" viewBox="0 0 16 16">
	<path d="M12.015 1.044a7.73 7.73 0 0 0-.918-.45C10.463.333 9.32.107 8.999.061v3.195c.099.021.2.035.298.062a4.84 4.84 0 0 1 2.147 1.262c.057.058.106.123.16.183l.098-.056 2.67-1.544a7.676 7.676 0 0 0-2.358-2.12M9 15.938a6.343 6.343 0 0 0 1.073-.2c1.187-.356 2.116-.885 2.615-1.257a7.951 7.951 0 0 0 2.806-3.68c.358-.96.531-1.986.505-3.018A7.97 7.97 0 0 0 14.927 4l-2.724 1.574c.412.715.652 1.541.652 2.427a4.858 4.858 0 0 1-2.965 4.472c-.285.12-.583.212-.892.277v3.19zm-1-3.084c-.335 0-.992-.104-1-.105A4.852 4.852 0 0 1 3.144 8a4.851 4.851 0 0 1 3.854-4.75c.006-.002.014-.006.022-.007a4.85 4.85 0 0 1 .978-.1V0a7.974 7.974 0 0 0-6.172 2.91A7.964 7.964 0 0 0 0 8a7.964 7.964 0 0 0 1.827 5.088 8.06 8.06 0 0 0 3.058 2.282c.957.405 2.01.629 3.114.629v-3.145z"/>
</svg>
